X:994
T:Francis Beaton's Reel
C:Donald Angus Beaton
S:Album-Buddy MacMaster, The Judique Flyer
Z:Nigel Gatherer
L:1/8
M:4/4
K:D
G | FAAB AFAd | g2 fd edBd | FAAF ABdA | BdAF D/D/D DG |
FAAB AFAd | g2 fd edBd | FAAF A[Bf][df]e | faef d2 ||
ef | gbge fafd | e/e/e fe dBBd | gbge fafd | gece ddef |
gbge fafd | e/e/e fe dBBd | FAAF ABde | faef ddd |]
<end>
<start>
